lib/svg/issue-reopened.svg

<svg xmlns="http://www.w3.org/2000/svg" width="14" height="16" viewBox="0 0 14 16"><path d="M8 9H6V4h2v5zm-2 3h2v-2H6v2zm6.33-2H10l1.5 1.5c-1.05 1.33-2.67 2.2-4.5 2.2A5.71 5.71 0 0 1 1.3 8c0-.34.03-.67.09-1H.08C.03 7.33 0 7.66 0 8c0 3.86 3.14 7 7 7 2.19 0 4.13-1.02 5.41-2.59L14 14v-4h-1.67zM1.67 6H4L2.5 4.5C3.55 3.17 5.17 2.3 7 2.3c3.14 0 5.7 2.56 5.7 5.7 0 .34-.03.67-.09 1h1.31c.05-.33.08-.66.08-1 0-3.86-3.14-7-7-7-2.19 0-4.13 1.02-5.41 2.59L0 2v4h1.67z"/></svg>

<?xml version="1.0" encoding="UTF-8" standalone="no"?>
<svg width="14px" height="16px" viewBox="0 0 14 16" version="1.1" xmlns="http://www.w3.org/2000/svg" xmlns:xlink="http://www.w3.org/1999/xlink">
    <!-- Generator: Sketch 3.8.3 (29802) - http://www.bohemiancoding.com/sketch -->
    <title>issue-reopened</title>
    <desc>Created with Sketch.</desc>
    <defs></defs>
    <g id="Octicons" stroke="none" stroke-width="1" fill="none" fill-rule="evenodd">
        <g id="issue-reopened" fill="#000000">
            <path d="M8,9 L6,9 L6,4 L8,4 L8,9 L8,9 Z M6,12 L8,12 L8,10 L6,10 L6,12 L6,12 Z M12.33,10 L10,10 L11.5,11.5 C10.45,12.83 8.83,13.7 7,13.7 C3.86,13.7 1.3,11.14 1.3,8 C1.3,7.66 1.33,7.33 1.39,7 L0.08,7 C0.03,7.33 0,7.66 0,8 C0,11.86 3.14,15 7,15 C9.19,15 11.13,13.98 12.41,12.41 L14,14 L14,10 L12.33,10 L12.33,10 Z M1.67,6 L4,6 L2.5,4.5 C3.55,3.17 5.17,2.3 7,2.3 C10.14,2.3 12.7,4.86 12.7,8 C12.7,8.34 12.67,8.67 12.61,9 L13.92,9 C13.97,8.67 14,8.34 14,8 C14,4.14 10.86,1 7,1 C4.81,1 2.87,2.02 1.59,3.59 L0,2 L0,6 L1.67,6 L1.67,6 Z" id="Shape"></path>
        </g>
    </g>
</svg>
